X: 2
T: The Flower Of The Flock
R: reel
M: 4/4
L: 1/8
K: Gmaj
|DEGA B (3BBB|cABG AGEG||DEGA BGGB|c2 Bc AGEG||DEGA BGBd|(3cBA BG ABGE||gdeg (3ded Bd| then add any second bar from above ||g2 (3efg dcBd| ditto |


Tune 585	Setting 13580

